X: 12344
T: Fall Of Foyers, The
R: strathspey
M: 4/4
K: Dmajor
D/E/|FF F>d B/A/G/F/ A/G/F/E/|FF d>c B3D/E/|FF d>e f/d/e/c/ d/A/F/D/|1 B/A/G/F/ d>F FE ED/E/:|2 B/A/G/F/ d>F FE Eb||
a<f d'<b af fd'/b/|af d'>c'b2bc'/d'/|a<f b>f a<f f>e|d>B B/A/G/F/ FE EB'|
a<f d'<b af fd'/>b/|af d'/c'/d'/e'/ f'e' e'd'/e'/|f'd'/f'/ e'c'/e'/ c'b/d'/ b/a/g/f/|g/f/e/d/ c/B/A/G/ FDD||

